X:1
T:The Sweet Olden Story
T:The Sweet Olden Story
T:Marion Sylvester Kerby
T:Marion Sylvester Kerby, 1891
T:Public Domain Courtesy of the Cyber Hymnal™
C:Marion Sylvester Kerby
Z:Public Domain
Z:Courtesy of the Cyber Hymnal™
%%score ( 1 2 ) ( 3 4 )
L:1/8
Q:1/4=100
M:4/4
K:Ab
V:1 treble 
V:2 treble 
V:3 bass 
V:4 bass 
V:1
 [CE]>[CE] | [CE]2 [CA]>[DB] [Ec]2 [Ec]>[DB] | [CA]4 [CE]2 [A,C]>[B,D] | %3
w: 1.~I have|read of the sweet old- en|sto- ry, Of the|
w: 2.~I have|read of the clear spark- ling|riv- er, Burst- ing|
w: 3.~I have|read how the banks of that|riv- er By the|
 [CE]2 [EA]>[EB] [Ec]2 [Ee]>[Ec] | [EB]6 [DE]>[DE] | [CE]2 [CA]>[DB] [Ec]2 [Ec]>[EB] | %6
w: fair, hap- py E- den a-|bove; Of the|beau- ti- ful man- sions of|
w: out ’neath the great throne of|God; How its|sweet wa- ters glide on for-|
w: saints and the an- gels are|trod; How their|glor- i- ous an- thems for-|
 [FA]4 [FA]2 [EG]>[DF] | [CE]2 [CA]>[Ec] [Ec]2 [DB]>[DB] | [CA]6 ||"^Refrain" [EG]>[FA] | %10
w: glo- ry, In the|bright gold- en ci- ty of|love.|Oh, the|
w: ev- er, Mak- ing|glad all the host of the|Lord.||
w: ev- er Swell the|praise of our Sav- ior and|God.||
 [GB]6 [Ge]>[Bd] | [Ac]4 [EA]2 [Ac]>[Ac] | [GB]2 [GB]>[GB] [Ac]2 [A=d]>[Ad] | [Ge]6 E>[DE] | %14
w: sweet old- en|sto- ry Of the|fair, hap- py E- den a-|bove; Of the|
w: ||||
w: ||||
 [CE]2 [CA]>[DB] [Ec]2 [Ec]>[EB] | [FA]4 [FA]2 [EG]>[DF] | [CE]2 [CA]>[Ec] [Ec]2 [DB]>[DB] | %17
w: beau- ti- ful man- sions of|glo- ry, In the|bright gold- en ci- ty of|
w: |||
w: |||
 [CA]6 |] %18
w: love.|
w: |
w: |
V:2
 x2 | x8 | x8 | x8 | x8 | x8 | x8 | x8 | x6 || x2 | x8 | x8 | x8 | x6 E3/2 x/ | x8 | x8 | x8 | %17
 x6 |] %18
V:3
 [A,,A,]>[A,,A,] | [A,,A,]2 [A,,E,]>[A,,E,] [A,,A,]2 [A,,A,]>[A,,E,] | %2
w: ~ ~|~ ~ ~ ~ ~ ~|
 [A,,E,]4 [A,,A,]2 [A,,E,]>[A,,E,] | [A,,A,]2 [C,A,]>[E,G,] A,2 [A,C]>A, | [E,G,]6 [E,G,]>[E,G,] | %5
w: ~ ~ ~ ~|~ ~ ~ ~ ~ ~|~ ~ ~|
 [A,,A,]2 [A,,E,]>[A,,E,] [A,,A,]2 [A,,A,]>[C,A,] | [D,A,]4 [D,A,]2 [D,A,]>[D,A,] | %7
w: ~ ~ ~ ~ ~ ~|~ ~ ~ ~|
 [E,A,]2 [E,A,]>[E,A,] [E,A,]2 [E,G,]>[E,G,] | [A,,A,]6 || z2 | z2 [E,E]>[E,E] [E,E]2 [E,E]>[E,E] | %11
w: ~ ~ ~ ~ ~ ~|~||Oh, the sweet ~ ~|
 [A,E]2 [A,E]2 [A,C]2 z2 | z2 [E,E]>[E,E] [B,,=D]2 [B,,B,]>[B,,B,] | %13
w: sto- ry dear,|Of the fair, hap- py|
 [E,B,]2 [E,B,]>[E,B,] B,2 [C,A,]>[B,,G,] | [A,,A,]2 [A,,E,]>[A,,E,] [A,,A,]2 [A,,A,]>[C,A,] | %15
w: E- den a- bove; * *||
 [D,A,]4 [D,A,]2 [D,A,]>[D,A,] | [E,A,]2 [E,A,]>[E,A,] [E,A,]2 [E,G,]>[E,G,] | [A,,A,]6 |] %18
w: |||
V:4
 x2 | x8 | x8 | x4 A,2 A,/ x3/2 | x8 | x8 | x8 | x8 | x6 || x2 | x8 | x8 | x8 | x4 (E,D,) x2 | x8 | %15
 x8 | x8 | x6 |] %18

